report_00007_2020-12-11T15:55:29.892Z/max-potential-fid/comparison/line/6_vs_7.svg

<svg width="640" height="500" xmlns="http://www.w3.org/2000/svg" xmlns:xlink="http://www.w3.org/1999/xlink"><path fill="#fff" d="M0 0h640v500H0z"/><defs><path id="d" stroke-width=".222" stroke="currentColor" d="M-1-1h2v2h-2z"/><path id="b" stroke-width=".222" stroke="currentColor" d="M0-1.33l-1.33 2h2.66z"/><path id="f" stroke-width=".222" stroke="currentColor" d="M0 1.33L1.265.411.782-1.067l-1.564-.009-.483 1.487z"/><use xlink:href="#b" id="c" stroke="currentColor" transform="rotate(180)"/><use xlink:href="#d" id="e" stroke="currentColor" transform="rotate(45)"/><circle id="a" stroke-width=".222" stroke="currentColor" cx="0" cy="0" r="1"/></defs><g fill="none" color="#000" stroke="currentColor"><path stroke="#000" d="M45.6 353.9h9m560.4 0h-9"/><text transform="translate(37.3 357.8)" stroke="none" fill="#000" font-family="Arial" font-size="12" text-anchor="end"><tspan>30</tspan></text></g><g fill="none" color="#000" stroke="currentColor"><path stroke="#000" d="M45.6 315.2h9m560.4 0h-9"/><text transform="translate(37.3 319.1)" stroke="none" fill="#000" font-family="Arial" font-size="12" text-anchor="end"><tspan>35</tspan></text></g><g fill="none" color="#000" stroke="currentColor"><path stroke="#000" d="M45.6 276.6h9m560.4 0h-9"/><text transform="translate(37.3 280.5)" stroke="none" fill="#000" font-family="Arial" font-size="12" text-anchor="end"><tspan>40</tspan></text></g><g fill="none" color="#000" stroke="currentColor"><path stroke="#000" d="M45.6 237.9h9m560.4 0h-9"/><text transform="translate(37.3 241.8)" stroke="none" fill="#000" font-family="Arial" font-size="12" text-anchor="end"><tspan>45</tspan></text></g><g fill="none" color="#000" stroke="currentColor"><path stroke="#000" d="M45.6 199.3h9m560.4 0h-9"/><text transform="translate(37.3 203.2)" stroke="none" fill="#000" font-family="Arial" font-size="12" text-anchor="end"><tspan>50</tspan></text></g><g fill="none" color="#000" stroke="currentColor"><path stroke="#000" d="M45.6 160.6h9m560.4 0h-9"/><text transform="translate(37.3 164.5)" stroke="none" fill="#000" font-family="Arial" font-size="12" text-anchor="end"><tspan>55</tspan></text></g><g fill="none" color="#000" stroke="currentColor"><path stroke="#000" d="M45.6 121.9h9m560.4 0h-9"/><text transform="translate(37.3 125.8)" stroke="none" fill="#000" font-family="Arial" font-size="12" text-anchor="end"><tspan>60</tspan></text></g><g fill="none" color="#000" stroke="currentColor"><path stroke="#000" d="M45.6 83.3h9m560.4 0h-9"/><text transform="translate(37.3 87.2)" stroke="none" fill="#000" font-family="Arial" font-size="12" text-anchor="end"><tspan>65</tspan></text></g><g fill="none" color="#000" stroke="currentColor"><path stroke="#000" d="M45.6 44.6h9m560.4 0h-9"/><text transform="translate(37.3 48.5)" stroke="none" fill="#000" font-family="Arial" font-size="12" text-anchor="end"><tspan>70</tspan></text></g><g fill="none" color="#000" stroke="currentColor"><path stroke="#000" d="M45.6 392v-9m0-364.9v9"/><text transform="translate(45.6 413.9)" stroke="none" fill="#000" font-family="Arial" font-size="12" text-anchor="middle"><tspan>0</tspan></text></g><g fill="none" color="#000" stroke="currentColor"><path stroke="#000" d="M103.1 392v-9m0-364.9v9"/><text transform="translate(103.1 413.9)" stroke="none" fill="#000" font-family="Arial" font-size="12" text-anchor="middle"><tspan>10</tspan></text></g><g fill="none" color="#000" stroke="currentColor"><path stroke="#000" d="M160.6 392v-9m0-364.9v9"/><text transform="translate(160.6 413.9)" stroke="none" fill="#000" font-family="Arial" font-size="12" text-anchor="middle"><tspan>20</tspan></text></g><g fill="none" color="#000" stroke="currentColor"><path stroke="#000" d="M218.1 392v-9m0-364.9v9"/><text transform="translate(218.1 413.9)" stroke="none" fill="#000" font-family="Arial" font-size="12" text-anchor="middle"><tspan>30</tspan></text></g><g fill="none" color="#000" stroke="currentColor"><path stroke="#000" d="M275.7 392v-9m0-364.9v9"/><text transform="translate(275.7 413.9)" stroke="none" fill="#000" font-family="Arial" font-size="12" text-anchor="middle"><tspan>40</tspan></text></g><g fill="none" color="#000" stroke="currentColor"><path stroke="#000" d="M333.2 392v-9m0-364.9v9"/><text transform="translate(333.2 413.9)" stroke="none" fill="#000" font-family="Arial" font-size="12" text-anchor="middle"><tspan>50</tspan></text></g><g fill="none" color="#000" stroke="currentColor"><path stroke="#000" d="M390.7 392v-9m0-364.9v9"/><text transform="translate(390.7 413.9)" stroke="none" fill="#000" font-family="Arial" font-size="12" text-anchor="middle"><tspan>60</tspan></text></g><g fill="none" color="#000" stroke="currentColor"><path stroke="#000" d="M448.2 392v-9m0-364.9v9"/><text transform="translate(448.2 413.9)" stroke="none" fill="#000" font-family="Arial" font-size="12" text-anchor="middle"><tspan>70</tspan></text></g><g fill="none" color="#000" stroke="currentColor"><path stroke="#000" d="M505.7 392v-9m0-364.9v9"/><text transform="translate(505.7 413.9)" stroke="none" fill="#000" font-family="Arial" font-size="12" text-anchor="middle"><tspan>80</tspan></text></g><g fill="none" color="#000" stroke="currentColor"><path stroke="#000" d="M563.2 392v-9m0-364.9v9"/><text transform="translate(563.2 413.9)" stroke="none" fill="#000" font-family="Arial" font-size="12" text-anchor="middle"><tspan>90</tspan></text></g><path stroke="#000" d="M45.6 18.1V392H615V18.1H45.6z" fill="none" color="#000"/><text transform="translate(429.5 431.9)" stroke="none" fill="#000" font-family="Arial" font-size="12" text-anchor="end" color="#000"><tspan>pages+cached+noexternal+nofonts</tspan></text><path stroke="#9400D3" d="M437.8 428H480M45.6 377.1l5.8-61.9 5.7 69.6 5.8-7.7h11.5l5.7-61.9 5.8 61.9 5.7-61.9 5.8 31 5.7 30.9 5.8-61.9 5.7 61.9 5.8-61.9 5.7 61.9 5.8-7.8 5.7 7.8 5.8 7.7 5.7-7.7 5.8-54.1 5.7-7.8 5.8 31 5.7 23.1h23l5.8 7.8 5.7-7.8 5.8 15.5 5.7-38.6 5.8-31 5.7 61.9h5.8l5.8-54.1 5.7 23.2 5.8-23.2 5.7 54.1 5.8-15.5 5.7 7.7 5.8-46.3 5.7-7.8 5.8 7.8 5.7 54.1 5.8 7.7 5.7-7.7h5.8l5.7-38.7 5.8-23.2h5.7l5.8 7.8 5.7 61.8 5.8-7.7h5.7l5.8-54.1 5.7 46.3 5.8 7.8 5.7-54.1 5.8 54.1h5.7l5.8-61.9 5.7 61.9 5.8-54.1 5.7 23.2 5.8-38.7 5.7 7.7 5.8 7.8 5.8 54.1 5.7-30.9 5.8 30.9H454l5.7-7.8 5.8-46.3h5.7l5.8 54.1 5.7-54.1 5.8 54.1 5.7-7.8 5.8 7.8 5.7-7.8 5.8 7.8 5.7-54.1 5.8-7.8 5.7 54.1h5.8l5.7-54.1 5.8-7.7 5.7 69.6 5.8-30.9 5.7 30.9h11.5l5.8-61.9 5.7 31 5.8-46.4 5.7 77.3h5.8l5.7-7.8 5.8 7.8" fill="none" color="#000"/><text transform="translate(429.5 449.9)" stroke="none" fill="#000" font-family="Arial" font-size="12" text-anchor="end" color="#000"><tspan>pages+cached+noexternal+nosvg</tspan></text><path stroke="#009E73" d="M437.8 446H480M45.6 369.3l5.8 7.8 5.7-7.8h5.8l5.7 15.5 5.8-15.5 5.7 7.8 5.8-15.5 5.7 7.7 5.8 7.8h5.7l5.8-351.8 5.7 336.3 5.8 15.5h11.5l5.7-7.8 5.8 7.8h5.7l5.8-38.7 5.7 30.9 5.8 15.5h5.7l5.8-7.7h5.7l5.8-7.8 5.7 7.8h5.8l5.7-38.7 5.8 46.4 5.7-7.7 5.8-7.8 5.7 7.8h5.8l5.8 7.7 5.7-7.7 5.8-15.5 5.7 15.5 5.8 7.7 5.7-15.5 5.8 7.8 5.7-7.8 5.8-30.9 5.7 38.7 5.8-7.8 5.7-30.9h11.5l5.8 38.7h5.7l5.8-38.7 5.7 30.9 5.8 7.8h5.7l5.8 7.7 5.7-7.7 5.8 7.7 5.7-7.7 5.8-15.5 5.7 15.5 5.8-7.8h5.7l5.8 7.8 5.7-7.8h5.8l5.7 7.8h5.8l5.8-7.8 5.7 7.8 5.8-46.4 5.7 46.4h17.3l5.7 7.7 5.8-7.7 5.7 7.7 5.8-23.2 5.7 7.7h5.8l5.7 7.8h5.8l5.7-38.7h5.8l5.7 30.9h5.8l5.7 7.8h11.5l5.8-38.7 5.7 7.8 5.8 30.9h23l5.7-38.7 5.8 30.9 5.7 7.8h5.8" fill="none" color="#000"/><text transform="translate(429.5 467.9)" stroke="none" fill="#000" font-family="Arial" font-size="12" text-anchor="end" color="#000"><tspan>score p10=130</tspan></text><path stroke="#56B4E9" d="M437.8 464H480" fill="none" color="#000"/><g><text transform="translate(429.5 485.9)" stroke="none" fill="#000" font-family="Arial" font-size="12" text-anchor="end" color="#000"><tspan>score median=250</tspan></text><path stroke="#E69F00" d="M437.8 482H480" fill="none" color="#000"/></g><g fill="none" color="#000" stroke="currentColor"><path stroke="#000" d="M45.6 18.1V392H615V18.1H45.6z"/></g></svg>

<?xml version="1.0" encoding="utf-8"  standalone="no"?>
<svg 
 width="640" height="500"
 viewBox="0 0 640 500"
 xmlns="http://www.w3.org/2000/svg"
 xmlns:xlink="http://www.w3.org/1999/xlink"
>

<title>Gnuplot</title>
<desc>Produced by GNUPLOT 5.4 patchlevel 0 </desc>

<g id="gnuplot_canvas">

<rect x="0" y="0" width="640" height="500" fill="#ffffff"/>
<defs>

	<circle id='gpDot' r='0.5' stroke-width='0.5' stroke='currentColor'/>
	<path id='gpPt0' stroke-width='0.222' stroke='currentColor' d='M-1,0 h2 M0,-1 v2'/>
	<path id='gpPt1' stroke-width='0.222' stroke='currentColor' d='M-1,-1 L1,1 M1,-1 L-1,1'/>
	<path id='gpPt2' stroke-width='0.222' stroke='currentColor' d='M-1,0 L1,0 M0,-1 L0,1 M-1,-1 L1,1 M-1,1 L1,-1'/>
	<rect id='gpPt3' stroke-width='0.222' stroke='currentColor' x='-1' y='-1' width='2' height='2'/>
	<rect id='gpPt4' stroke-width='0.222' stroke='currentColor' fill='currentColor' x='-1' y='-1' width='2' height='2'/>
	<circle id='gpPt5' stroke-width='0.222' stroke='currentColor' cx='0' cy='0' r='1'/>
	<use xlink:href='#gpPt5' id='gpPt6' fill='currentColor' stroke='none'/>
	<path id='gpPt7' stroke-width='0.222' stroke='currentColor' d='M0,-1.33 L-1.33,0.67 L1.33,0.67 z'/>
	<use xlink:href='#gpPt7' id='gpPt8' fill='currentColor' stroke='none'/>
	<use xlink:href='#gpPt7' id='gpPt9' stroke='currentColor' transform='rotate(180)'/>
	<use xlink:href='#gpPt9' id='gpPt10' fill='currentColor' stroke='none'/>
	<use xlink:href='#gpPt3' id='gpPt11' stroke='currentColor' transform='rotate(45)'/>
	<use xlink:href='#gpPt11' id='gpPt12' fill='currentColor' stroke='none'/>
	<path id='gpPt13' stroke-width='0.222' stroke='currentColor' d='M0,1.330 L1.265,0.411 L0.782,-1.067 L-0.782,-1.076 L-1.265,0.411 z'/>
	<use xlink:href='#gpPt13' id='gpPt14' fill='currentColor' stroke='none'/>
	<filter id='textbox' filterUnits='objectBoundingBox' x='0' y='0' height='1' width='1'>
	  <feFlood flood-color='#FFFFFF' flood-opacity='1' result='bgnd'/>
	  <feComposite in='SourceGraphic' in2='bgnd' operator='atop'/>
	</filter>
	<filter id='greybox' filterUnits='objectBoundingBox' x='0' y='0' height='1' width='1'>
	  <feFlood flood-color='lightgrey' flood-opacity='1' result='grey'/>
	  <feComposite in='SourceGraphic' in2='grey' operator='atop'/>
	</filter>
</defs>
<g fill="none" color="#FFFFFF" stroke="black" stroke-width="1.00" stroke-linecap="butt" stroke-linejoin="miter">
</g>
<g fill="none" color="black" stroke="currentColor" stroke-width="1.00" stroke-linecap="butt" stroke-linejoin="miter">
	<path stroke='black'  d='M45.6,353.9 L54.6,353.9 M615.0,353.9 L606.0,353.9  '/>	<g transform="translate(37.3,357.8)" stroke="none" fill="black" font-family="Arial" font-size="12.00"  text-anchor="end">
		<text><tspan font-family="Arial" > 30</tspan></text>
	</g>
</g>
<g fill="none" color="black" stroke="currentColor" stroke-width="1.00" stroke-linecap="butt" stroke-linejoin="miter">
	<path stroke='black'  d='M45.6,315.2 L54.6,315.2 M615.0,315.2 L606.0,315.2  '/>	<g transform="translate(37.3,319.1)" stroke="none" fill="black" font-family="Arial" font-size="12.00"  text-anchor="end">
		<text><tspan font-family="Arial" > 35</tspan></text>
	</g>
</g>
<g fill="none" color="black" stroke="currentColor" stroke-width="1.00" stroke-linecap="butt" stroke-linejoin="miter">
	<path stroke='black'  d='M45.6,276.6 L54.6,276.6 M615.0,276.6 L606.0,276.6  '/>	<g transform="translate(37.3,280.5)" stroke="none" fill="black" font-family="Arial" font-size="12.00"  text-anchor="end">
		<text><tspan font-family="Arial" > 40</tspan></text>
	</g>
</g>
<g fill="none" color="black" stroke="currentColor" stroke-width="1.00" stroke-linecap="butt" stroke-linejoin="miter">
	<path stroke='black'  d='M45.6,237.9 L54.6,237.9 M615.0,237.9 L606.0,237.9  '/>	<g transform="translate(37.3,241.8)" stroke="none" fill="black" font-family="Arial" font-size="12.00"  text-anchor="end">
		<text><tspan font-family="Arial" > 45</tspan></text>
	</g>
</g>
<g fill="none" color="black" stroke="currentColor" stroke-width="1.00" stroke-linecap="butt" stroke-linejoin="miter">
	<path stroke='black'  d='M45.6,199.3 L54.6,199.3 M615.0,199.3 L606.0,199.3  '/>	<g transform="translate(37.3,203.2)" stroke="none" fill="black" font-family="Arial" font-size="12.00"  text-anchor="end">
		<text><tspan font-family="Arial" > 50</tspan></text>
	</g>
</g>
<g fill="none" color="black" stroke="currentColor" stroke-width="1.00" stroke-linecap="butt" stroke-linejoin="miter">
	<path stroke='black'  d='M45.6,160.6 L54.6,160.6 M615.0,160.6 L606.0,160.6  '/>	<g transform="translate(37.3,164.5)" stroke="none" fill="black" font-family="Arial" font-size="12.00"  text-anchor="end">
		<text><tspan font-family="Arial" > 55</tspan></text>
	</g>
</g>
<g fill="none" color="black" stroke="currentColor" stroke-width="1.00" stroke-linecap="butt" stroke-linejoin="miter">
	<path stroke='black'  d='M45.6,121.9 L54.6,121.9 M615.0,121.9 L606.0,121.9  '/>	<g transform="translate(37.3,125.8)" stroke="none" fill="black" font-family="Arial" font-size="12.00"  text-anchor="end">
		<text><tspan font-family="Arial" > 60</tspan></text>
	</g>
</g>
<g fill="none" color="black" stroke="currentColor" stroke-width="1.00" stroke-linecap="butt" stroke-linejoin="miter">
	<path stroke='black'  d='M45.6,83.3 L54.6,83.3 M615.0,83.3 L606.0,83.3  '/>	<g transform="translate(37.3,87.2)" stroke="none" fill="black" font-family="Arial" font-size="12.00"  text-anchor="end">
		<text><tspan font-family="Arial" > 65</tspan></text>
	</g>
</g>
<g fill="none" color="black" stroke="currentColor" stroke-width="1.00" stroke-linecap="butt" stroke-linejoin="miter">
	<path stroke='black'  d='M45.6,44.6 L54.6,44.6 M615.0,44.6 L606.0,44.6  '/>	<g transform="translate(37.3,48.5)" stroke="none" fill="black" font-family="Arial" font-size="12.00"  text-anchor="end">
		<text><tspan font-family="Arial" > 70</tspan></text>
	</g>
</g>
<g fill="none" color="black" stroke="currentColor" stroke-width="1.00" stroke-linecap="butt" stroke-linejoin="miter">
	<path stroke='black'  d='M45.6,392.0 L45.6,383.0 M45.6,18.1 L45.6,27.1  '/>	<g transform="translate(45.6,413.9)" stroke="none" fill="black" font-family="Arial" font-size="12.00"  text-anchor="middle">
		<text><tspan font-family="Arial" > 0</tspan></text>
	</g>
</g>
<g fill="none" color="black" stroke="currentColor" stroke-width="1.00" stroke-linecap="butt" stroke-linejoin="miter">
	<path stroke='black'  d='M103.1,392.0 L103.1,383.0 M103.1,18.1 L103.1,27.1  '/>	<g transform="translate(103.1,413.9)" stroke="none" fill="black" font-family="Arial" font-size="12.00"  text-anchor="middle">
		<text><tspan font-family="Arial" > 10</tspan></text>
	</g>
</g>
<g fill="none" color="black" stroke="currentColor" stroke-width="1.00" stroke-linecap="butt" stroke-linejoin="miter">
	<path stroke='black'  d='M160.6,392.0 L160.6,383.0 M160.6,18.1 L160.6,27.1  '/>	<g transform="translate(160.6,413.9)" stroke="none" fill="black" font-family="Arial" font-size="12.00"  text-anchor="middle">
		<text><tspan font-family="Arial" > 20</tspan></text>
	</g>
</g>
<g fill="none" color="black" stroke="currentColor" stroke-width="1.00" stroke-linecap="butt" stroke-linejoin="miter">
	<path stroke='black'  d='M218.1,392.0 L218.1,383.0 M218.1,18.1 L218.1,27.1  '/>	<g transform="translate(218.1,413.9)" stroke="none" fill="black" font-family="Arial" font-size="12.00"  text-anchor="middle">
		<text><tspan font-family="Arial" > 30</tspan></text>
	</g>
</g>
<g fill="none" color="black" stroke="currentColor" stroke-width="1.00" stroke-linecap="butt" stroke-linejoin="miter">
	<path stroke='black'  d='M275.7,392.0 L275.7,383.0 M275.7,18.1 L275.7,27.1  '/>	<g transform="translate(275.7,413.9)" stroke="none" fill="black" font-family="Arial" font-size="12.00"  text-anchor="middle">
		<text><tspan font-family="Arial" > 40</tspan></text>
	</g>
</g>
<g fill="none" color="black" stroke="currentColor" stroke-width="1.00" stroke-linecap="butt" stroke-linejoin="miter">
	<path stroke='black'  d='M333.2,392.0 L333.2,383.0 M333.2,18.1 L333.2,27.1  '/>	<g transform="translate(333.2,413.9)" stroke="none" fill="black" font-family="Arial" font-size="12.00"  text-anchor="middle">
		<text><tspan font-family="Arial" > 50</tspan></text>
	</g>
</g>
<g fill="none" color="black" stroke="currentColor" stroke-width="1.00" stroke-linecap="butt" stroke-linejoin="miter">
	<path stroke='black'  d='M390.7,392.0 L390.7,383.0 M390.7,18.1 L390.7,27.1  '/>	<g transform="translate(390.7,413.9)" stroke="none" fill="black" font-family="Arial" font-size="12.00"  text-anchor="middle">
		<text><tspan font-family="Arial" > 60</tspan></text>
	</g>
</g>
<g fill="none" color="black" stroke="currentColor" stroke-width="1.00" stroke-linecap="butt" stroke-linejoin="miter">
	<path stroke='black'  d='M448.2,392.0 L448.2,383.0 M448.2,18.1 L448.2,27.1  '/>	<g transform="translate(448.2,413.9)" stroke="none" fill="black" font-family="Arial" font-size="12.00"  text-anchor="middle">
		<text><tspan font-family="Arial" > 70</tspan></text>
	</g>
</g>
<g fill="none" color="black" stroke="currentColor" stroke-width="1.00" stroke-linecap="butt" stroke-linejoin="miter">
	<path stroke='black'  d='M505.7,392.0 L505.7,383.0 M505.7,18.1 L505.7,27.1  '/>	<g transform="translate(505.7,413.9)" stroke="none" fill="black" font-family="Arial" font-size="12.00"  text-anchor="middle">
		<text><tspan font-family="Arial" > 80</tspan></text>
	</g>
</g>
<g fill="none" color="black" stroke="currentColor" stroke-width="1.00" stroke-linecap="butt" stroke-linejoin="miter">
	<path stroke='black'  d='M563.2,392.0 L563.2,383.0 M563.2,18.1 L563.2,27.1  '/>	<g transform="translate(563.2,413.9)" stroke="none" fill="black" font-family="Arial" font-size="12.00"  text-anchor="middle">
		<text><tspan font-family="Arial" > 90</tspan></text>
	</g>
</g>
<g fill="none" color="black" stroke="currentColor" stroke-width="1.00" stroke-linecap="butt" stroke-linejoin="miter">
</g>
<g fill="none" color="black" stroke="currentColor" stroke-width="1.00" stroke-linecap="butt" stroke-linejoin="miter">
	<path stroke='black'  d='M45.6,18.1 L45.6,392.0 L615.0,392.0 L615.0,18.1 L45.6,18.1 Z  '/></g>
<g fill="none" color="black" stroke="currentColor" stroke-width="1.00" stroke-linecap="butt" stroke-linejoin="miter">
</g>
	<g id="gnuplot_plot_1" ><title>pages+cached+noexternal+nofonts</title>
<g fill="none" color="black" stroke="currentColor" stroke-width="1.00" stroke-linecap="butt" stroke-linejoin="miter">
	<g transform="translate(429.5,431.9)" stroke="none" fill="black" font-family="Arial" font-size="12.00"  text-anchor="end">
		<text><tspan font-family="Arial" >pages+cached+noexternal+nofonts</tspan></text>
	</g>
</g>
<g fill="none" color="black" stroke="currentColor" stroke-width="1.00" stroke-linecap="butt" stroke-linejoin="miter">
	<path stroke='rgb(148,   0, 211)'  d='M437.8,428.0 L480.0,428.0 M45.6,377.1 L51.4,315.2 L57.1,384.8 L62.9,377.1 L68.6,377.1 L74.4,377.1
		L80.1,315.2 L85.9,377.1 L91.6,315.2 L97.4,346.2 L103.1,377.1 L108.9,315.2 L114.6,377.1 L120.4,315.2
		L126.1,377.1 L131.9,369.3 L137.6,377.1 L143.4,384.8 L149.1,377.1 L154.9,323.0 L160.6,315.2 L166.4,346.2
		L172.1,369.3 L177.9,369.3 L183.6,369.3 L189.4,369.3 L195.1,369.3 L200.9,377.1 L206.6,369.3 L212.4,384.8
		L218.1,346.2 L223.9,315.2 L229.6,377.1 L235.4,377.1 L241.2,323.0 L246.9,346.2 L252.7,323.0 L258.4,377.1
		L264.2,361.6 L269.9,369.3 L275.7,323.0 L281.4,315.2 L287.2,323.0 L292.9,377.1 L298.7,384.8 L304.4,377.1
		L310.2,377.1 L315.9,338.4 L321.7,315.2 L327.4,315.2 L333.2,323.0 L338.9,384.8 L344.7,377.1 L350.4,377.1
		L356.2,323.0 L361.9,369.3 L367.7,377.1 L373.4,323.0 L379.2,377.1 L384.9,377.1 L390.7,315.2 L396.4,377.1
		L402.2,323.0 L407.9,346.2 L413.7,307.5 L419.4,315.2 L425.2,323.0 L431.0,377.1 L436.7,346.2 L442.5,377.1
		L448.2,377.1 L454.0,377.1 L459.7,369.3 L465.5,323.0 L471.2,323.0 L477.0,377.1 L482.7,323.0 L488.5,377.1
		L494.2,369.3 L500.0,377.1 L505.7,369.3 L511.5,377.1 L517.2,323.0 L523.0,315.2 L528.7,369.3 L534.5,369.3
		L540.2,315.2 L546.0,307.5 L551.7,377.1 L557.5,346.2 L563.2,377.1 L569.0,377.1 L574.7,377.1 L580.5,315.2
		L586.2,346.2 L592.0,299.8 L597.7,377.1 L603.5,377.1 L609.2,369.3 L615.0,377.1  '/></g>
	</g>
	<g id="gnuplot_plot_2" ><title>pages+cached+noexternal+nosvg</title>
<g fill="none" color="black" stroke="currentColor" stroke-width="1.00" stroke-linecap="butt" stroke-linejoin="miter">
	<g transform="translate(429.5,449.9)" stroke="none" fill="black" font-family="Arial" font-size="12.00"  text-anchor="end">
		<text><tspan font-family="Arial" >pages+cached+noexternal+nosvg</tspan></text>
	</g>
</g>
<g fill="none" color="black" stroke="currentColor" stroke-width="1.00" stroke-linecap="butt" stroke-linejoin="miter">
	<path stroke='rgb(  0, 158, 115)'  d='M437.8,446.0 L480.0,446.0 M45.6,369.3 L51.4,377.1 L57.1,369.3 L62.9,369.3 L68.6,384.8 L74.4,369.3
		L80.1,377.1 L85.9,361.6 L91.6,369.3 L97.4,377.1 L103.1,377.1 L108.9,25.3 L114.6,361.6 L120.4,377.1
		L126.1,377.1 L131.9,377.1 L137.6,369.3 L143.4,377.1 L149.1,377.1 L154.9,338.4 L160.6,369.3 L166.4,384.8
		L172.1,384.8 L177.9,377.1 L183.6,377.1 L189.4,369.3 L195.1,377.1 L200.9,377.1 L206.6,338.4 L212.4,384.8
		L218.1,377.1 L223.9,369.3 L229.6,377.1 L235.4,377.1 L241.2,384.8 L246.9,377.1 L252.7,361.6 L258.4,377.1
		L264.2,384.8 L269.9,369.3 L275.7,377.1 L281.4,369.3 L287.2,338.4 L292.9,377.1 L298.7,369.3 L304.4,338.4
		L310.2,338.4 L315.9,338.4 L321.7,377.1 L327.4,377.1 L333.2,338.4 L338.9,369.3 L344.7,377.1 L350.4,377.1
		L356.2,384.8 L361.9,377.1 L367.7,384.8 L373.4,377.1 L379.2,361.6 L384.9,377.1 L390.7,369.3 L396.4,369.3
		L402.2,377.1 L407.9,369.3 L413.7,369.3 L419.4,377.1 L425.2,377.1 L431.0,369.3 L436.7,377.1 L442.5,330.7
		L448.2,377.1 L454.0,377.1 L459.7,377.1 L465.5,377.1 L471.2,384.8 L477.0,377.1 L482.7,384.8 L488.5,361.6
		L494.2,369.3 L500.0,369.3 L505.7,377.1 L511.5,377.1 L517.2,338.4 L523.0,338.4 L528.7,369.3 L534.5,369.3
		L540.2,377.1 L546.0,377.1 L551.7,377.1 L557.5,338.4 L563.2,346.2 L569.0,377.1 L574.7,377.1 L580.5,377.1
		L586.2,377.1 L592.0,377.1 L597.7,338.4 L603.5,369.3 L609.2,377.1 L615.0,377.1  '/></g>
	</g>
	<g id="gnuplot_plot_3" ><title>score p10=130</title>
<g fill="none" color="black" stroke="currentColor" stroke-width="1.00" stroke-linecap="butt" stroke-linejoin="miter">
	<g transform="translate(429.5,467.9)" stroke="none" fill="black" font-family="Arial" font-size="12.00"  text-anchor="end">
		<text><tspan font-family="Arial" >score p10=130</tspan></text>
	</g>
</g>
<g fill="none" color="black" stroke="currentColor" stroke-width="1.00" stroke-linecap="butt" stroke-linejoin="miter">
	<path stroke='rgb( 86, 180, 233)'  d='M437.8,464.0 L480.0,464.0  '/></g>
	</g>
	<g id="gnuplot_plot_4" ><title>score median=250</title>
<g fill="none" color="black" stroke="currentColor" stroke-width="1.00" stroke-linecap="butt" stroke-linejoin="miter">
	<g transform="translate(429.5,485.9)" stroke="none" fill="black" font-family="Arial" font-size="12.00"  text-anchor="end">
		<text><tspan font-family="Arial" >score median=250</tspan></text>
	</g>
</g>
<g fill="none" color="black" stroke="currentColor" stroke-width="1.00" stroke-linecap="butt" stroke-linejoin="miter">
	<path stroke='rgb(230, 159,   0)'  d='M437.8,482.0 L480.0,482.0  '/></g>
	</g>
<g fill="none" color="#FFFFFF" stroke="rgb(230, 159,   0)" stroke-width="2.00" stroke-linecap="butt" stroke-linejoin="miter">
</g>
<g fill="none" color="black" stroke="currentColor" stroke-width="2.00" stroke-linecap="butt" stroke-linejoin="miter">
</g>
<g fill="none" color="black" stroke="black" stroke-width="1.00" stroke-linecap="butt" stroke-linejoin="miter">
</g>
<g fill="none" color="black" stroke="currentColor" stroke-width="1.00" stroke-linecap="butt" stroke-linejoin="miter">
	<path stroke='black'  d='M45.6,18.1 L45.6,392.0 L615.0,392.0 L615.0,18.1 L45.6,18.1 Z  '/></g>
<g fill="none" color="black" stroke="currentColor" stroke-width="1.00" stroke-linecap="butt" stroke-linejoin="miter">
</g>
</g>
</svg>
